; generated by PrusaSlicer 2.4.2+win64 on 2022-08-15 at 16:44:08 UTC


;
;
; 

; external perimeters extrusion width = 0.45mm
; perimeters extrusion width = 0.45mm
; infill extrusion width = 0.45mm
; solid infill extrusion width = 0.45mm
; top infill extrusion width = 0.40mm
; first layer extrusion width = 0.42mm

M73 P0 R62
M73 Q0 S62
M201 X1000 Y1000 Z200 E5000 ; sets maximum accelerations, mm/sec^2
M203 X200 Y200 Z12 E120 ; sets maximum feedrates, mm / sec
M204 P1250 R1250 T1250 ; sets acceleration (P, T) and retract acceleration (R), mm/sec^2
M205 X8.00 Y8.00 Z0.40 E4.50 ; sets the jerk limits, mm/sec
M205 S0 T0 ; sets the minimum extruding and travel feed rate, mm/sec
M107
;TYPE:Custom
M862.3 P "MK3S" ; printer model check
M862.1 P0.4 ; nozzle diameter check
M115 U3.11.0 ; tell printer latest fw version
G90 ; use absolute coordinates
M83 ; extruder relative mode
M104 S240 ; set extruder temp
M140 S85 ; set bed temp
M190 S85 ; wait for bed temp
M109 S240 ; wait for extruder temp
G28 W ; home all without mesh bed level
G80 ; mesh bed leveling
G1 Z0.2 F720
G1 Y-3 F1000 ; go outside print area
G92 E0
G1 X60 E9 F1000 ; intro line
G1 X100 E12.5 F1000 ; intro line
G92 E0
M221 S95

; Don't change E values below. Excessive value can damage the printer.
M907 E430 ; set extruder motor current
G21 ; set units to millimeters
G90 ; use absolute coordinates
M83 ; use relative distances for extrusion
M900 K0.08 ; Filament gcode LA 1.5
M900 K45 ; Filament gcode LA 1.0
M107
;LAYER_CHANGE
;Z:0.2
;HEIGHT:0.2
;BEFORE_LAYER_CHANGE
G92 E0.0
;0.2


G1 E-1 F2100
G1 Z.2 F720
;AFTER_LAYER_CHANGE
;0.2
G1 Z.4
G1 X112.875 Y94.664 F10800
G1 Z.2 F720
G1 E1 F2100
M204 S800
;TYPE:Skirt/Brim
;WIDTH:0.42
G1 F1200
G1 X113.923 Y93.547 E.04803
G1 X115.128 Y92.494 E.05019
G1 X116.433 Y91.567 E.05017
G1 X117.825 Y90.774 E.05023
G1 X119.289 Y90.126 E.05019
G1 X120.492 Y89.718 E.03983
G1 X122.048 Y89.343 E.0502
G1 X123.635 Y89.126 E.0502
G1 X125.235 Y89.069 E.0502
G1 X126.764 Y89.165 E.04803
G1 X128.344 Y89.422 E.0502
G1 X129.89 Y89.836 E.05019
G1 X131.388 Y90.404 E.0502
G1 X132.82 Y91.118 E.0502
G1 X133.901 Y91.786 E.03983
G1 X135.182 Y92.745 E.05016
G1 X136.361 Y93.829 E.05024
G1 X137.425 Y95.026 E.0502
G1 X138.363 Y96.323 E.0502
G1 X139.166 Y97.708 E.0502
G1 X139.826 Y99.166 E.05016
G1 X140.318 Y100.618 E.04807
G1 X140.681 Y102.177 E.05021
G1 X140.885 Y103.764 E.05017
G1 X140.929 Y105.365 E.0502
G1 X140.849 Y106.633 E.03986
G1 X140.605 Y108.216 E.0502
G1 X140.204 Y109.765 E.05016
G1 X139.648 Y111.268 E.05024
G1 X138.946 Y112.705 E.05016
G1 X138.102 Y114.067 E.05024
G1 X137.125 Y115.336 E.0502
G1 X136.077 Y116.453 E.04803
G1 X134.872 Y117.506 E.05019
G1 X133.567 Y118.433 E.05017
G1 X132.175 Y119.226 E.05023
G1 X130.711 Y119.874 E.05019
G1 X129.508 Y120.282 E.03983
G1 X127.952 Y120.657 E.0502
G1 X126.365 Y120.874 E.0502
G1 X124.765 Y120.931 E.0502
G1 X123.236 Y120.835 E.04803
G1 X121.656 Y120.578 E.0502
G1 X120.11 Y120.164 E.05019
G1 X118.612 Y119.596 E.0502
G1 X117.18 Y118.882 E.0502
G1 X116.099 Y118.214 E.03983
G1 X114.818 Y117.255 E.05016
G1 X113.639 Y116.171 E.05024
G1 X112.575 Y114.974 E.0502
G1 X111.637 Y113.677 E.0502
G1 X110.834 Y112.292 E.0502
G1 X110.174 Y110.834 E.05016
G1 X109.682 Y109.382 E.04806
G1 X109.319 Y107.823 E.05021
G1 X109.115 Y106.236 E.05017
G1 X109.071 Y104.635 E.0502
G1 X109.151 Y103.367 E.03986
G1 X109.395 Y101.784 E.0502
G1 X109.796 Y100.235 E.05016
G1 X110.352 Y98.732 E.05024
G1 X111.054 Y97.295 E.05016
G1 X111.898 Y95.933 E.05024
G1 X112.838 Y94.712 E.04832
M204 S1000
G1 X113.136 Y94.941 F10800
M204 S800
G1 F1200
G1 X114.188 Y93.816 E.0483
G1 X115.365 Y92.787 E.04901
G1 X116.639 Y91.882 E.04898
G1 X117.998 Y91.109 E.04904
G1 X119.428 Y90.477 E.04901
G1 X120.595 Y90.081 E.03864
G1 X122.114 Y89.714 E.04901
G1 X123.663 Y89.502 E.04901
G1 X125.225 Y89.446 E.04901
G1 X126.726 Y89.54 E.04714
G1 X128.269 Y89.792 E.04901
G1 X129.778 Y90.196 E.04901
G1 X131.24 Y90.751 E.04901
G1 X132.639 Y91.449 E.04901
G1 X133.687 Y92.096 E.03865
G1 X134.938 Y93.032 E.04897
G1 X136.089 Y94.091 E.04905
G1 X137.128 Y95.259 E.04901
G1 X138.045 Y96.525 E.04901
G1 X138.829 Y97.877 E.04901
G1 X139.474 Y99.3 E.04897
G1 X139.957 Y100.725 E.04717
G1 X140.31 Y102.248 E.04902
G1 X140.509 Y103.797 E.04898
G1 X140.552 Y105.36 E.04901
G1 X140.474 Y106.591 E.03867
G1 X140.236 Y108.136 E.04901
G1 X139.845 Y109.648 E.04897
G1 X139.303 Y111.116 E.04905
G1 X138.618 Y112.519 E.04897
G1 X137.794 Y113.849 E.04905
G1 X136.841 Y115.088 E.04901
G1 X135.812 Y116.184 E.04714
G1 X134.635 Y117.213 E.04901
G1 X133.361 Y118.118 E.04898
G1 X132.002 Y118.891 E.04904
G1 X130.572 Y119.523 E.04901
G1 X129.405 Y119.919 E.03864
G1 X127.886 Y120.286 E.04901
G1 X126.337 Y120.498 E.04901
G1 X124.775 Y120.554 E.04901
G1 X123.274 Y120.46 E.04714
G1 X121.731 Y120.208 E.04901
G1 X120.222 Y119.804 E.04901
G1 X118.76 Y119.249 E.04901
G1 X117.361 Y118.551 E.04901
G1 X116.313 Y117.904 E.03865
G1 X115.062 Y116.968 E.04897
G1 X113.911 Y115.909 E.04905
G1 X112.872 Y114.741 E.04901
G1 X111.955 Y113.475 E.04901
G1 X111.171 Y112.123 E.04901
G1 X110.526 Y110.7 E.04897
G1 X110.043 Y109.275 E.04717
G1 X109.69 Y107.752 E.04902
G1 X109.491 Y106.203 E.04898
G1 X109.448 Y104.64 E.04901
G1 X109.526 Y103.409 E.03867
G1 X109.764 Y101.864 E.04901
G1 X110.155 Y100.352 E.04897
G1 X110.697 Y98.884 E.04905
G1 X111.382 Y97.481 E.04897
G1 X112.206 Y96.151 E.04905
G1 X113.1 Y94.989 E.04597
M204 S1000
; printing object ThreadSpoolWindingAdaptor.stl id:0 copy 0
;WIPE_START
G1 F8640
G1 X114.188 Y93.816 E-.36947
G1 X115.365 Y92.787 E-.36091
G1 X116.141 Y92.236 E-.21962
;WIPE_END
G1 E-.05 F2100
G1 Z.4 F720
G1 X122.671 Y100.965 F10800
G1 Z.2 F720
G1 E1 F2100
M204 S800
;TYPE:Perimeter
G1 F1200
G1 X127.329 Y100.965 E.14607
G1 X129.659 Y105 E.14607
G1 X127.329 Y109.035 E.14607
G1 X122.671 Y109.035 E.14607
G1 X120.341 Y105 E.14607
G1 X122.641 Y101.017 E.14419
M204 S1000
G1 X122.888 Y101.342 F10800
M204 S800
;TYPE:External perimeter
G1 F1200
G1 X127.112 Y101.342 E.13242
G1 X129.223 Y105 E.13242
G1 X127.112 Y108.658 E.13242
G1 X122.888 Y108.658 E.13242
G1 X120.777 Y105 E.13242
G1 X122.858 Y101.394 E.13054
M204 S1000
G1 X122.888 Y100.942 F10800
;WIPE_START
G1 F8640
G1 X126.972 Y101.344 E-.95
;WIPE_END
G1 E-.05 F2100
G1 Z.4 F720
G1 X118.957 Y94.192 F10800
G1 Z.2 F720
G1 E1 F2100
M204 S800
;TYPE:Perimeter
G1 F1200
G1 X119.447 Y93.922 E.01753
G1 X120.007 Y93.659 E.01941
G1 X120.583 Y93.422 E.01953
G1 X121.171 Y93.215 E.01953
G1 X121.768 Y93.037 E.01953
G1 X122.373 Y92.89 E.01953
G1 X122.985 Y92.773 E.01953
G1 X123.602 Y92.688 E.01953
G1 X124.222 Y92.633 E.01953
G1 X124.844 Y92.609 E.01953
G1 X125.462 Y92.617 E.01938
G1 X126.402 Y92.688 E.02955
G1 X127.015 Y92.773 E.01941
G1 X127.627 Y92.89 E.01953
G1 X128.232 Y93.037 E.01953
G1 X128.829 Y93.215 E.01953
G1 X129.417 Y93.422 E.01953
G1 X129.993 Y93.659 E.01953
G1 X130.556 Y93.924 E.01953
G1 X131.106 Y94.217 E.01953
G1 X131.64 Y94.537 E.01953
G1 X132.157 Y94.884 E.01953
G1 X132.656 Y95.257 E.01953
G1 X133.136 Y95.654 E.01953
G1 X133.595 Y96.074 E.01953
G1 X134.033 Y96.517 E.01953
G1 X134.448 Y96.982 E.01953
G1 X134.839 Y97.467 E.01953
G1 X135.205 Y97.971 E.01953
G1 X135.545 Y98.492 E.01953
G1 X135.859 Y99.03 E.01953
G1 X136.145 Y99.583 E.01953
G1 X136.403 Y100.15 E.01953
G1 X136.632 Y100.729 E.01953
G1 X136.832 Y101.319 E.01953
G1 X137.002 Y101.918 E.01953
G1 X137.142 Y102.525 E.01953
G1 X137.251 Y103.137 E.0195
G1 X137.329 Y103.756 E.01956
G1 X137.376 Y104.373 E.01938
G1 X137.387 Y105.316 E.02958
G1 X137.356 Y105.933 E.01938
G1 X137.294 Y106.553 E.01953
G1 X137.2 Y107.169 E.01953
G1 X137.076 Y107.779 E.01953
G1 X136.921 Y108.382 E.01953
G1 X136.736 Y108.977 E.01953
G1 X136.521 Y109.562 E.01953
G1 X136.278 Y110.135 E.01953
G1 X136.005 Y110.695 E.01953
G1 X135.705 Y111.241 E.01953
G1 X135.378 Y111.771 E.01953
G1 X135.025 Y112.284 E.01953
G1 X134.646 Y112.778 E.01953
G1 X134.243 Y113.253 E.01953
G1 X133.817 Y113.707 E.01953
G1 X133.368 Y114.139 E.01953
G1 X132.899 Y114.548 E.01953
G1 X132.409 Y114.933 E.01953
G1 X131.901 Y115.292 E.01953
G1 X131.375 Y115.626 E.01953
G1 X130.833 Y115.933 E.01953
G1 X130.276 Y116.212 E.01953
G1 X129.706 Y116.463 E.01953
G1 X129.129 Y116.683 E.01938
G1 X128.229 Y116.963 E.02955
G1 X127.627 Y117.11 E.01941
G1 X127.015 Y117.227 E.01953
G1 X126.398 Y117.312 E.01953
G1 X125.778 Y117.367 E.01953
G1 X125.156 Y117.391 E.01953
G1 X124.533 Y117.383 E.01953
G1 X123.911 Y117.344 E.01953
G1 X123.293 Y117.273 E.01953
G1 X122.678 Y117.172 E.01953
G1 X122.073 Y117.041 E.01941
G1 X121.167 Y116.784 E.02952
G1 X120.583 Y116.578 E.01941
G1 X120.007 Y116.341 E.01953
G1 X119.444 Y116.076 E.01953
G1 X118.894 Y115.783 E.01953
G1 X118.36 Y115.463 E.01953
G1 X117.843 Y115.116 E.01953
G1 X117.344 Y114.743 E.01953
G1 X116.864 Y114.346 E.01953
G1 X116.405 Y113.926 E.01953
G1 X115.967 Y113.483 E.01953
G1 X115.552 Y113.018 E.01953
G1 X115.161 Y112.533 E.01953
G1 X114.795 Y112.029 E.01953
G1 X114.455 Y111.508 E.01953
G1 X114.141 Y110.97 E.01953
G1 X113.855 Y110.417 E.01953
G1 X113.597 Y109.85 E.01953
G1 X113.368 Y109.271 E.01953
G1 X113.168 Y108.681 E.01953
G1 X112.998 Y108.082 E.01953
G1 X112.858 Y107.475 E.01953
G1 X112.749 Y106.863 E.01949
G1 X112.671 Y106.244 E.01956
G1 X112.624 Y105.627 E.01938
G1 X112.613 Y104.684 E.02958
G1 X112.644 Y104.067 E.01938
G1 X112.706 Y103.447 E.01953
G1 X112.8 Y102.831 E.01953
G1 X112.924 Y102.221 E.01953
G1 X113.079 Y101.618 E.01953
G1 X113.264 Y101.023 E.01953
G1 X113.479 Y100.438 E.01953
G1 X113.722 Y99.865 E.01953
G1 X113.995 Y99.305 E.01953
G1 X114.295 Y98.759 E.01953
G1 X114.622 Y98.229 E.01953
G1 X114.975 Y97.716 E.01953
G1 X115.354 Y97.222 E.01953
G1 X115.757 Y96.747 E.01953
G1 X116.183 Y96.293 E.01953
G1 X116.632 Y95.861 E.01953
G1 X117.101 Y95.452 E.01953
G1 X117.591 Y95.067 E.01953
G1 X118.099 Y94.708 E.01953
G1 X118.622 Y94.376 E.01941
G1 X118.905 Y94.221 E.0101
M204 S1000
G1 X118.776 Y93.861 F10800
M204 S800
;TYPE:External perimeter
G1 F1200
G1 X119.276 Y93.586 E.0179
G1 X119.855 Y93.314 E.02008
G1 X120.449 Y93.07 E.02012
G1 X121.054 Y92.856 E.02012
G1 X121.669 Y92.673 E.02012
G1 X122.293 Y92.522 E.02012
G1 X122.923 Y92.401 E.02012
G1 X123.559 Y92.313 E.02012
G1 X124.198 Y92.256 E.02012
G1 X124.84 Y92.232 E.02012
G1 X125.479 Y92.24 E.02005
G1 X126.442 Y92.313 E.03029
G1 X127.077 Y92.401 E.02008
G1 X127.707 Y92.522 E.02012
G1 X128.331 Y92.673 E.02012
G1 X128.946 Y92.856 E.02012
G1 X129.551 Y93.07 E.02012
G1 X130.145 Y93.314 E.02012
G1 X130.725 Y93.587 E.02012
G1 X131.291 Y93.889 E.02012
G1 X131.842 Y94.219 E.02012
G1 X132.375 Y94.576 E.02012
G1 X132.889 Y94.96 E.02012
G1 X133.384 Y95.369 E.02012
G1 X133.857 Y95.803 E.02012
G1 X134.308 Y96.259 E.02012
G1 X134.735 Y96.738 E.02012
G1 X135.138 Y97.237 E.02012
G1 X135.515 Y97.757 E.02012
G1 X135.866 Y98.294 E.02012
G1 X136.189 Y98.849 E.02012
G1 X136.484 Y99.419 E.02012
G1 X136.75 Y100.003 E.02012
G1 X136.986 Y100.599 E.02012
G1 X137.192 Y101.207 E.02012
G1 X137.368 Y101.825 E.02012
G1 X137.512 Y102.45 E.02012
G1 X137.624 Y103.081 E.02009
G1 X137.704 Y103.718 E.02015
G1 X137.752 Y104.356 E.02005
G1 X137.765 Y105.323 E.03033
G1 X137.732 Y105.962 E.02005
G1 X137.668 Y106.6 E.02012
G1 X137.572 Y107.235 E.02012
G1 X137.443 Y107.864 E.02012
G1 X137.284 Y108.485 E.02012
G1 X137.093 Y109.098 E.02012
G1 X136.872 Y109.701 E.02012
G1 X136.621 Y110.291 E.02012
G1 X136.34 Y110.868 E.02012
G1 X136.031 Y111.431 E.02012
G1 X135.694 Y111.977 E.02012
G1 X135.33 Y112.505 E.02012
G1 X134.94 Y113.015 E.02012
G1 X134.525 Y113.504 E.02012
G1 X134.085 Y113.972 E.02012
G1 X133.623 Y114.417 E.02012
G1 X133.139 Y114.839 E.02012
G1 X132.635 Y115.235 E.02012
G1 X132.111 Y115.606 E.02012
G1 X131.569 Y115.95 E.02012
G1 X131.01 Y116.266 E.02012
G1 X130.437 Y116.554 E.02012
G1 X129.849 Y116.812 E.02012
G1 X129.252 Y117.04 E.02005
G1 X128.329 Y117.327 E.03029
G1 X127.707 Y117.479 E.02008
G1 X127.077 Y117.599 E.02012
G1 X126.441 Y117.687 E.02012
G1 X125.802 Y117.744 E.02012
G1 X125.16 Y117.768 E.02012
G1 X124.519 Y117.76 E.02012
G1 X123.878 Y117.719 E.02012
G1 X123.241 Y117.647 E.02012
G1 X122.607 Y117.543 E.02012
G1 X121.981 Y117.407 E.02008
G1 X121.053 Y117.143 E.03026
G1 X120.449 Y116.93 E.02008
G1 X119.855 Y116.686 E.02012
G1 X119.275 Y116.413 E.02012
G1 X118.709 Y116.111 E.02012
G1 X118.158 Y115.781 E.02012
G1 X117.625 Y115.424 E.02012
G1 X117.111 Y115.04 E.02012
G1 X116.616 Y114.631 E.02012
G1 X116.143 Y114.197 E.02012
G1 X115.692 Y113.741 E.02012
G1 X115.265 Y113.262 E.02012
G1 X114.862 Y112.763 E.02012
G1 X114.485 Y112.243 E.02012
G1 X114.134 Y111.706 E.02012
G1 X113.811 Y111.151 E.02012
G1 X113.516 Y110.581 E.02012
G1 X113.25 Y109.997 E.02012
G1 X113.014 Y109.401 E.02012
G1 X112.808 Y108.793 E.02012
G1 X112.632 Y108.175 E.02012
G1 X112.488 Y107.55 E.02012
G1 X112.376 Y106.919 E.02009
G1 X112.296 Y106.282 E.02015
G1 X112.248 Y105.644 E.02005
G1 X112.235 Y104.677 E.03033
G1 X112.268 Y104.038 E.02005
G1 X112.332 Y103.4 E.02012
G1 X112.428 Y102.765 E.02012
G1 X112.557 Y102.136 E.02012
G1 X112.716 Y101.515 E.02012
G1 X112.907 Y100.902 E.02012
G1 X113.128 Y100.299 E.02012
G1 X113.379 Y99.709 E.02012
G1 X113.66 Y99.132 E.02012
G1 X113.969 Y98.569 E.02012
G1 X114.306 Y98.023 E.02012
G1 X114.67 Y97.495 E.02012
G1 X115.06 Y96.985 E.02012
G1 X115.475 Y96.496 E.02012
G1 X115.915 Y96.028 E.02012
G1 X116.377 Y95.583 E.02012
G1 X116.861 Y95.161 E.02012
G1 X117.365 Y94.765 E.02012
G1 X117.889 Y94.394 E.02012
G1 X118.43 Y94.051 E.02008
G1 X118.723 Y93.89 E.01048
M204 S1000
G1 X119.12 Y94.064 F10800
;WIPE_START
G1 F8640
G1 X119.276 Y93.586 E-.1457
G1 X119.855 Y93.314 E-.14788
G1 X120.449 Y93.07 E-.14818
G1 X121.054 Y92.856 E-.14818
G1 X121.669 Y92.673 E-.14819
G1 X122.293 Y92.522 E-.14819
G1 X122.564 Y92.47 E-.06368
;WIPE_END
G1 E-.05 F2100
G1 Z.4 F720
G1 X134.996 Y97.876 F10800
G1 Z.2 F720
G1 E1 F2100
M204 S800
;TYPE:Solid infill
;WIDTH:0.42123
G1 F1200
G1 X133.388 Y96.268 E.07152
G1 X132.95 Y95.867 E.01869
G1 X132.481 Y95.479 E.01914
G1 X131.994 Y95.115 E.01914
G1 X131.172 Y94.587 E.03074
G1 X135.414 Y98.829 E.18871
G1 X135.611 Y99.167 E.01231
G1 X136.002 Y99.952 E.02759
G1 X130.047 Y93.997 E.2649
G1 X129.14 Y93.624 E.03086
G1 X136.379 Y100.864 E.32207
G1 X136.633 Y101.653 E.02605
G1 X128.347 Y93.367 E.36862
G1 X127.626 Y93.181 E.02341
G1 X136.816 Y102.371 E.40883
G1 X136.945 Y103.035 E.02128
G1 X126.962 Y93.051 E.44413
G1 X126.342 Y92.967 E.01966
G1 X137.031 Y103.656 E.47551
G1 X137.082 Y104.242 E.0185
M73 P0 R61
G1 X125.764 Y92.924 E.50351
G1 X125.202 Y92.897 E.01769
G1 X137.098 Y104.793 E.52921
G1 X137.103 Y105.333 E.017
G1 X124.669 Y92.899 E.55315
G1 X124.158 Y92.922 E.01611
G1 X137.078 Y105.843 E.57477
G1 X137.032 Y106.332 E.01546
M73 Q1 S62
G1 X123.666 Y92.966 E.5946
G1 X123.195 Y93.03 E.01496
M73 P1 R61
G1 X136.97 Y106.804 E.61279
G1 X136.893 Y107.262 E.01461
G1 X122.738 Y93.108 E.62967
G1 X122.295 Y93.2 E.01424
G1 X136.802 Y107.707 E.64535
G1 X136.693 Y108.133 E.01383
G1 X121.865 Y93.305 E.65965
G1 X121.452 Y93.426 E.01355
G1 X136.573 Y108.548 E.67271
G1 X136.443 Y108.953 E.01338
M73 Q1 S61
G1 X121.048 Y93.558 E.68488
G1 X120.654 Y93.699 E.01317
G1 X136.3 Y109.345 E.69602
G1 X136.145 Y109.725 E.01291
G1 X128.026 Y101.605 E.36119
G1 X127.493 Y100.683 E.03352
G1 X127.103 Y100.683 E.01227
G1 X120.275 Y93.855 E.30375
G1 X119.905 Y94.02 E.01275
G1 X126.568 Y100.683 E.29641
G1 X126.033 Y100.683 E.01683
G1 X119.543 Y94.193 E.28871
G1 X119.197 Y94.382 E.01239
G1 X125.498 Y100.683 E.28027
G1 X124.963 Y100.683 E.01683
G1 X118.852 Y94.572 E.27183
G1 X118.52 Y94.775 E.01224
G1 X124.428 Y100.683 E.26279
G1 X123.893 Y100.683 E.01683
G1 X118.196 Y94.986 E.25342
G1 X117.883 Y95.208 E.01207
G1 X123.358 Y100.683 E.24356
G1 X122.823 Y100.683 E.01683
G1 X117.578 Y95.438 E.23333
G1 X117.278 Y95.673 E.01198
G1 X122.427 Y100.822 E.22905
G1 X122.231 Y101.161 E.01232
G1 X116.992 Y95.922 E.23306
G1 X116.823 Y96.07 E.00707
G1 X116.712 Y96.177 E.00485
G1 X122.035 Y101.5 E.23683
G1 X121.839 Y101.839 E.01232
G1 X116.439 Y96.439 E.24024
G1 X116.177 Y96.712 E.0119
G1 X121.644 Y102.179 E.24318
G1 X121.448 Y102.518 E.01232
