; generated by PrusaSlicer 2.4.2+win64 on 2022-08-17 at 18:04:43 UTC


;
;
; 

; external perimeters extrusion width = 0.45mm
; perimeters extrusion width = 0.45mm
; infill extrusion width = 0.45mm
; solid infill extrusion width = 0.45mm
; top infill extrusion width = 0.40mm
; first layer extrusion width = 0.42mm

M73 P0 R116
M73 Q0 S116
M201 X1000 Y1000 Z200 E5000 ; sets maximum accelerations, mm/sec^2
M203 X200 Y200 Z12 E120 ; sets maximum feedrates, mm / sec
M204 P1250 R1250 T1250 ; sets acceleration (P, T) and retract acceleration (R), mm/sec^2
M205 X8.00 Y8.00 Z0.40 E4.50 ; sets the jerk limits, mm/sec
M205 S0 T0 ; sets the minimum extruding and travel feed rate, mm/sec
M107
;TYPE:Custom
M862.3 P "MK3S" ; printer model check
M862.1 P0.4 ; nozzle diameter check
M115 U3.11.0 ; tell printer latest fw version
G90 ; use absolute coordinates
M83 ; extruder relative mode
M104 S240 ; set extruder temp
M140 S85 ; set bed temp
M190 S85 ; wait for bed temp
M109 S240 ; wait for extruder temp
G28 W ; home all without mesh bed level
G80 ; mesh bed leveling
G1 Z0.2 F720
G1 Y-3 F1000 ; go outside print area
G92 E0
G1 X60 E9 F1000 ; intro line
G1 X100 E12.5 F1000 ; intro line
G92 E0
M221 S95

; Don't change E values below. Excessive value can damage the printer.
M907 E430 ; set extruder motor current
G21 ; set units to millimeters
G90 ; use absolute coordinates
M83 ; use relative distances for extrusion
M900 K0.08 ; Filament gcode LA 1.5
M900 K45 ; Filament gcode LA 1.0
M107
;LAYER_CHANGE
;Z:0.2
;HEIGHT:0.2
;BEFORE_LAYER_CHANGE
G92 E0.0
;0.2


M73 P0 R115
G1 E-1 F2100
G1 Z.2 F720
;AFTER_LAYER_CHANGE
;0.2
G1 Z.4
G1 X60.67 Y22.421 F10800
G1 Z.2 F720
G1 E1 F2100
M204 S800
;TYPE:Skirt/Brim
;WIDTH:0.42
G1 F1200
G1 X60.976 Y21.594 E.02763
G1 X61.678 Y20.157 E.05016
G1 X62.523 Y18.795 E.05024
G1 X63.499 Y17.526 E.0502
G1 X64.547 Y16.409 E.04803
G1 X65.753 Y15.355 E.05019
G1 X67.057 Y14.428 E.05017
G1 X68.449 Y13.636 E.05023
G1 X69.913 Y12.988 E.05019
G1 X71.116 Y12.58 E.03983
G1 X72.673 Y12.205 E.0502
G1 X74.259 Y11.988 E.0502
G1 X75.859 Y11.931 E.0502
G1 X77.388 Y12.027 E.04803
G1 X78.968 Y12.284 E.0502
G1 X80.515 Y12.698 E.05019
G1 X82.012 Y13.265 E.0502
G1 X83.444 Y13.98 E.0502
G1 X84.525 Y14.647 E.03983
G1 X85.806 Y15.607 E.05016
G1 X86.985 Y16.691 E.05024
G1 X88.049 Y17.888 E.0502
G1 X88.987 Y19.185 E.0502
G1 X89.791 Y20.57 E.0502
G1 X90.45 Y22.028 E.05016
G1 X90.942 Y23.479 E.04807
G1 X91.305 Y25.039 E.05021
G1 X91.509 Y26.626 E.05017
G1 X91.553 Y28.226 E.0502
G1 X91.473 Y29.495 E.03986
G1 X91.229 Y31.078 E.0502
G1 X90.828 Y32.626 E.05016
G1 X90.272 Y34.129 E.05024
G1 X89.57 Y35.567 E.05016
G1 X88.726 Y36.928 E.05024
G1 X87.75 Y38.198 E.0502
G1 X86.701 Y39.314 E.04803
G1 X85.496 Y40.368 E.05019
G1 X84.191 Y41.295 E.05017
G1 X82.799 Y42.088 E.05023
G1 X81.335 Y42.736 E.05019
G1 X80.132 Y43.144 E.03983
G1 X78.576 Y43.519 E.0502
G1 X76.989 Y43.736 E.0502
G1 X75.389 Y43.793 E.0502
G1 X73.86 Y43.697 E.04803
G1 X72.28 Y43.44 E.0502
G1 X70.734 Y43.025 E.05019
G1 X69.237 Y42.458 E.0502
G1 X67.804 Y41.743 E.0502
G1 X66.723 Y41.076 E.03983
G1 X65.442 Y40.117 E.05016
G1 X64.263 Y39.032 E.05024
G1 X63.199 Y37.836 E.0502
G1 X62.261 Y36.538 E.0502
G1 X61.458 Y35.153 E.0502
G1 X60.798 Y33.696 E.05016
G1 X60.306 Y32.244 E.04806
G1 X59.943 Y30.684 E.05021
G1 X59.739 Y29.097 E.05017
G1 X59.695 Y27.497 E.0502
G1 X59.775 Y26.228 E.03986
G1 X60.019 Y24.646 E.0502
G1 X60.42 Y23.097 E.05016
G1 X60.65 Y22.477 E.02073
M204 S1000
G1 X61.003 Y22.607 F10800
M204 S800
G1 F1200
G1 X61.321 Y21.746 E.02879
G1 X62.006 Y20.343 E.04897
G1 X62.83 Y19.013 E.04905
G1 X63.783 Y17.774 E.04901
M73 Q0 S115
G1 X64.812 Y16.678 E.04714
G1 X65.989 Y15.649 E.04901
G1 X67.263 Y14.744 E.04898
G1 X68.622 Y13.971 E.04904
G1 X70.052 Y13.338 E.04901
G1 X71.219 Y12.943 E.03864
G1 X72.739 Y12.576 E.04901
G1 X74.287 Y12.364 E.04901
G1 X75.849 Y12.308 E.04901
G1 X77.35 Y12.402 E.04714
G1 X78.893 Y12.653 E.04901
G1 X80.403 Y13.058 E.04901
G1 X81.864 Y13.612 E.04901
G1 X83.263 Y14.311 E.04901
G1 X84.312 Y14.958 E.03865
G1 X85.562 Y15.894 E.04897
G1 X86.714 Y16.953 E.04905
G1 X87.752 Y18.121 E.04901
G1 X88.669 Y19.387 E.04901
G1 X89.453 Y20.739 E.04901
G1 X90.098 Y22.162 E.04897
G1 X90.581 Y23.587 E.04717
G1 X90.935 Y25.11 E.04902
G1 X91.133 Y26.659 E.04898
G1 X91.176 Y28.222 E.04901
G1 X91.098 Y29.453 E.03867
G1 X90.861 Y30.998 E.04901
G1 X90.469 Y32.51 E.04897
G1 X89.927 Y33.977 E.04905
G1 X89.242 Y35.381 E.04897
G1 X88.418 Y36.711 E.04905
G1 X87.465 Y37.95 E.04901
G1 X86.436 Y39.046 E.04714
G1 X85.259 Y40.074 E.04901
G1 X83.985 Y40.979 E.04898
G1 X82.626 Y41.753 E.04904
G1 X81.196 Y42.385 E.04901
G1 X80.029 Y42.781 E.03864
G1 X78.51 Y43.148 E.04901
G1 X76.961 Y43.36 E.04901
G1 X75.399 Y43.416 E.04901
G1 X73.898 Y43.321 E.04714
G1 X72.355 Y43.07 E.04901
G1 X70.846 Y42.665 E.04901
G1 X69.384 Y42.111 E.04901
G1 X67.986 Y41.413 E.04901
G1 X66.937 Y40.766 E.03865
G1 X65.686 Y39.829 E.04897
G1 X64.535 Y38.771 E.04905
G1 X63.496 Y37.603 E.04901
G1 X62.579 Y36.336 E.04901
G1 X61.795 Y34.984 E.04901
G1 X61.15 Y33.562 E.04897
G1 X60.667 Y32.137 E.04717
G1 X60.314 Y30.614 E.04902
G1 X60.115 Y29.064 E.04898
G1 X60.073 Y27.502 E.04901
G1 X60.15 Y26.271 E.03867
G1 X60.388 Y24.726 E.04901
G1 X60.779 Y23.214 E.04897
G1 X60.982 Y22.664 E.01838
M204 S1000
; printing object ThreadSpoolWindingAdaptor.stl id:0 copy 0
;WIPE_START
G1 F8640
G1 X61.321 Y21.746 E-.22586
G1 X62.006 Y20.343 E-.36065
G1 X62.83 Y19.013 E-.36123
G1 X62.836 Y19.005 E-.00226
;WIPE_END
G1 E-.05 F2100
G1 Z.4 F720
G1 X78.819 Y32.308 F10800
G1 Z.2 F720
G1 E1 F2100
M204 S800
;TYPE:External perimeter
G1 F1200
G1 X81.072 Y28.405 E.14131
G1 X87.568 Y28.795 E.20402
G1 X87.163 Y29.496 E.02538
G1 X86.813 Y31.921 E.07683
G1 X84.734 Y35.522 E.13037
G1 X82.809 Y37.037 E.07683
G1 X82.404 Y37.738 E.02538
G1 X78.852 Y32.358 E.20214
M204 S1000
G1 X78.498 Y32.07 F10800
;WIPE_START
G1 F8640
G1 X80.867 Y28.771 E-.95
;WIPE_END
G1 E-.05 F2100
G1 Z.4 F720
G1 X82.651 Y38.065 F10800
G1 Z.2 F720
G1 E1 F2100
M204 S800
;TYPE:Perimeter
G1 F1200
G1 X83.099 Y37.289 E.02809
G1 X85.025 Y35.774 E.07683
G1 X87.176 Y32.047 E.13492
G1 X87.526 Y29.622 E.07683
G1 X87.976 Y28.842 E.02822
G1 X87.918 Y29.415 E.01804
G1 X87.824 Y30.031 E.01953
G1 X87.7 Y30.641 E.01953
G1 X87.545 Y31.244 E.01953
G1 X87.36 Y31.839 E.01953
G1 X87.145 Y32.423 E.01953
G1 X86.902 Y32.997 E.01953
G1 X86.63 Y33.557 E.01953
G1 X86.329 Y34.102 E.01953
G1 X86.002 Y34.632 E.01953
G1 X85.649 Y35.145 E.01953
G1 X85.27 Y35.64 E.01953
G1 X84.867 Y36.115 E.01953
G1 X84.441 Y36.569 E.01953
G1 X83.993 Y37.001 E.01953
G1 X83.523 Y37.41 E.01953
G1 X82.7 Y38.03 E.0323
M204 S1000
;WIPE_START
G1 F8640
G1 X83.099 Y37.289 E-.19434
G1 X85.025 Y35.774 E-.56577
G1 X85.436 Y35.061 E-.18989
;WIPE_END
G1 E-.05 F2100
G1 Z.4 F720
G1 X81.072 Y27.318 F10800
G1 Z.2 F720
G1 E1 F2100
M204 S800
;TYPE:External perimeter
G1 F1200
G1 X78.819 Y23.415 E.14131
G1 X82.404 Y17.985 E.20402
G1 X82.809 Y18.686 E.02538
G1 X84.734 Y20.201 E.07683
G1 X86.813 Y23.802 E.13037
G1 X87.163 Y26.227 E.07683
G1 X87.568 Y26.928 E.02538
G1 X81.132 Y27.315 E.20214
M204 S1000
G1 X80.705 Y27.477 F10800
;WIPE_START
G1 F8640
G1 X79.033 Y23.776 E-.95
;WIPE_END
G1 E-.05 F2100
G1 Z.4 F720
G1 X87.973 Y26.876 F10800
G1 Z.2 F720
G1 E1 F2100
M204 S800
;TYPE:Perimeter
G1 F1200
G1 X87.526 Y26.102 E.02802
G1 X87.176 Y23.677 E.07683
G1 X85.025 Y19.95 E.13492
G1 X83.099 Y18.435 E.07683
G1 X82.651 Y17.659 E.02808
G1 X83.28 Y18.118 E.02443
G1 X83.76 Y18.515 E.01953
G1 X84.22 Y18.936 E.01953
G1 X84.657 Y19.379 E.01953
G1 X85.072 Y19.844 E.01953
G1 X85.463 Y20.329 E.01953
G1 X85.829 Y20.832 E.01953
G1 X86.169 Y21.354 E.01953
G1 X86.483 Y21.892 E.01953
G1 X86.769 Y22.445 E.01953
G1 X87.027 Y23.012 E.01953
G1 X87.257 Y23.591 E.01953
G1 X87.456 Y24.181 E.01953
G1 X87.626 Y24.78 E.01953
G1 X87.766 Y25.387 E.01953
G1 X87.875 Y25.999 E.0195
G1 X87.968 Y26.816 E.02577
M204 S1000
;WIPE_START
G1 F8640
G1 X87.526 Y26.102 E-.19398
G1 X87.176 Y23.677 E-.56577
G1 X86.764 Y22.963 E-.19025
;WIPE_END
G1 E-.05 F2100
G1 Z.4 F720
G1 X80.258 Y27.862 F10800
G1 Z.2 F720
G1 E1 F2100
M204 S800
G1 F1200
G1 X77.941 Y31.875 E.14529
G1 X73.307 Y31.875 E.14529
G1 X70.99 Y27.862 E.14529
G1 X73.307 Y23.849 E.14529
G1 X77.941 Y23.849 E.14529
G1 X80.228 Y27.81 E.14341
M204 S1000
G1 X79.823 Y27.862 F10800
M204 S800
;TYPE:External perimeter
G1 F1200
G1 X77.723 Y31.498 E.13164
G1 X73.525 Y31.498 E.13164
G1 X71.426 Y27.862 E.13164
G1 X73.525 Y24.226 E.13164
G1 X77.723 Y24.226 E.13164
G1 X79.793 Y27.81 E.12976
M204 S1000
G1 X80.169 Y28.062 F10800
;WIPE_START
G1 F8640
G1 X77.779 Y31.398 E-.95
;WIPE_END
G1 E-.05 F2100
G1 Z.4 F720
G1 X78.111 Y23.249 F10800
G1 Z.2 F720
G1 E1 F2100
M204 S800
;TYPE:Perimeter
G1 F1200
G1 X81.308 Y16.854 E.22418
G1 X81.73 Y17.079 E.01499
G1 X82.316 Y17.434 E.02149
G1 X78.376 Y23.402 E.22422
G1 X80.862 Y27.709 E.15592
G1 X88 Y27.28 E.22421
G1 X88.012 Y28.178 E.02815
G1 X87.998 Y28.443 E.00833
G1 X80.862 Y28.015 E.22415
G1 X78.376 Y32.322 E.15592
G1 X82.315 Y38.287 E.22415
G1 X81.457 Y38.795 E.03125
G1 X81.308 Y38.869 E.00522
G1 X78.111 Y32.475 E.22417
G1 X73.138 Y32.475 E.15592
G1 X69.94 Y38.87 E.22418
G1 X69.518 Y38.645 E.01499
G1 X68.932 Y38.289 E.0215
G1 X72.872 Y32.322 E.22422
G1 X70.386 Y28.015 E.15592
G1 X63.248 Y28.443 E.22421
G1 X63.237 Y27.546 E.02815
G1 X63.25 Y27.28 E.00833
G1 X70.386 Y27.709 E.22415
G1 X72.872 Y23.402 E.15592
G1 X68.933 Y17.436 E.22415
G1 X69.246 Y17.238 E.01162
G1 X69.941 Y16.856 E.02486
G1 X73.138 Y23.249 E.22411
G1 X78.051 Y23.249 E.15404
M204 S1000
;WIPE_START
G1 F8640
G1 X79.918 Y19.583 E-.95
;WIPE_END
G1 E-.05 F2100
G1 Z.4 F720
G1 X80.944 Y16.675 F10800
G1 Z.2 F720
G1 E1 F2100
M204 S800
G1 F1200
G1 X80.051 Y16.675 E.02802
G1 X77.776 Y15.765 E.07683
G1 X73.473 Y15.765 E.13492
G1 X71.198 Y16.675 E.07683
G1 X70.304 Y16.675 E.02802
G1 X71.208 Y16.284 E.03087
G1 X71.795 Y16.077 E.01953
G1 X72.392 Y15.899 E.01953
G1 X72.997 Y15.752 E.01953
G1 X73.609 Y15.635 E.01953
G1 X74.226 Y15.549 E.01953
G1 X74.846 Y15.495 E.01953
G1 X75.468 Y15.471 E.01953
G1 X76.086 Y15.479 E.01938
G1 X77.026 Y15.55 E.02955
G1 X77.639 Y15.635 E.01941
G1 X78.251 Y15.752 E.01953
G1 X78.856 Y15.899 E.01953
G1 X79.453 Y16.077 E.01953
G1 X80.041 Y16.284 E.01953
G1 X80.89 Y16.649 E.02899
M204 S1000
G1 X80.788 Y17.052 F10800
M204 S800
;TYPE:External perimeter
G1 F1200
G1 X77.878 Y22.872 E.20402
G1 X73.371 Y22.872 E.14131
G1 X70.461 Y17.052 E.20402
G1 X71.27 Y17.052 E.02538
G1 X73.545 Y16.142 E.07683
G1 X77.703 Y16.142 E.13037
G1 X79.978 Y17.052 E.07683
G1 X80.728 Y17.052 E.0235
M204 S1000
G1 X81.155 Y17.209 F10800
;WIPE_START
G1 F8640
G1 X78.918 Y20.747 E-.95
;WIPE_END
G1 E-.05 F2100
G1 Z.4 F720
G1 X72.429 Y23.415 F10800
G1 Z.2 F720
G1 E1 F2100
M204 S800
G1 F1200
G1 X70.176 Y27.318 E.14131
G1 X63.681 Y26.928 E.20402
G1 X64.085 Y26.227 E.02538
G1 X64.435 Y23.802 E.07683
G1 X66.514 Y20.201 E.13037
G1 X68.44 Y18.686 E.07685
G1 X68.844 Y17.985 E.02536
G1 X72.396 Y23.365 E.20214
M204 S1000
G1 X72.75 Y23.654 F10800
;WIPE_START
G1 F8640
G1 X70.381 Y26.952 E-.95
;WIPE_END
G1 E-.05 F2100
G1 Z.4 F720
G1 X68.597 Y17.659 F10800
G1 Z.2 F720
G1 E1 F2100
M204 S800
;TYPE:Perimeter
G1 F1200
G1 X68.149 Y18.434 E.02807
G1 X66.224 Y19.95 E.07685
G1 X64.072 Y23.677 E.13492
G1 X63.723 Y26.102 E.07683
G1 X63.273 Y26.881 E.02822
G1 X63.33 Y26.309 E.01804
G1 X63.424 Y25.693 E.01953
G1 X63.548 Y25.083 E.01953
G1 X63.703 Y24.479 E.01953
G1 X63.888 Y23.885 E.01953
G1 X64.103 Y23.3 E.01953
G1 X64.347 Y22.727 E.01953
G1 X64.619 Y22.167 E.01953
G1 X64.919 Y21.621 E.01953
G1 X65.246 Y21.091 E.01953
G1 X65.599 Y20.578 E.01953
G1 X65.978 Y20.084 E.01953
G1 X66.381 Y19.609 E.01953
G1 X66.807 Y19.155 E.01953
G1 X67.256 Y18.723 E.01953
G1 X67.725 Y18.314 E.01953
G1 X68.548 Y17.694 E.0323
M204 S1000
;WIPE_START
G1 F8640
G1 X68.149 Y18.434 E-.19419
G1 X66.224 Y19.95 E-.56591
G1 X65.812 Y20.662 E-.1899
;WIPE_END
G1 E-.05 F2100
G1 Z.4 F720
G1 X68.597 Y38.065 F10800
G1 Z.2 F720
G1 E1 F2100
M204 S800
G1 F1200
G1 X67.968 Y37.605 E.02443
G1 X67.488 Y37.208 E.01953
G1 X67.029 Y36.787 E.01953
G1 X66.591 Y36.344 E.01953
G1 X66.176 Y35.88 E.01953
G1 X65.785 Y35.395 E.01953
G1 X65.419 Y34.891 E.01953
G1 X65.079 Y34.369 E.01953
G1 X64.765 Y33.831 E.01953
G1 X64.479 Y33.278 E.01953
G1 X64.221 Y32.711 E.01953
G1 X63.992 Y32.132 E.01953
G1 X63.792 Y31.543 E.01953
G1 X63.622 Y30.943 E.01953
G1 X63.482 Y30.336 E.01953
G1 X63.373 Y29.724 E.01949
G1 X63.276 Y28.848 E.02765
G1 X63.723 Y29.622 E.02802
G1 X64.072 Y32.047 E.07683
G1 X66.224 Y35.774 E.13492
G1 X68.149 Y37.289 E.07683
G1 X68.567 Y38.013 E.0262
M204 S1000
G1 X68.844 Y37.738 F10800
M204 S800
;TYPE:External perimeter
G1 F1200
G1 X68.439 Y37.037 E.02538
G1 X66.514 Y35.522 E.07683
G1 X64.435 Y31.921 E.13037
G1 X64.085 Y29.496 E.07683
G1 X63.681 Y28.795 E.02538
G1 X70.176 Y28.405 E.20402
G1 X72.429 Y32.308 E.14131
G1 X68.877 Y37.688 E.20214
M204 S1000
G1 X68.573 Y38.032 F10800
;WIPE_START
G1 F8640
G1 X68.439 Y37.037 E-.18113
G1 X66.514 Y35.522 E-.56577
G1 X66.074 Y34.76 E-.2031
;WIPE_END
G1 E-.05 F2100
G1 Z.4 F720
G1 X70.537 Y38.518 F10800
G1 Z.2 F720
G1 E1 F2100
M204 S800
G1 F1200
G1 X73.371 Y32.852 E.19865
G1 X77.878 Y32.852 E.14131
G1 X80.788 Y38.672 E.20402
G1 X79.978 Y38.672 E.02538
G1 X77.703 Y39.582 E.07683
G1 X73.545 Y39.582 E.13037
G1 X71.27 Y38.672 E.07683
G1 X70.461 Y38.672 E.02538
G1 X70.511 Y38.572 E.00349
M204 S1000
G1 X70.166 Y38.371 F10800
G1 X70.427 Y39.107
M204 S800
;TYPE:Perimeter
G1 F1200
G1 X70.304 Y39.049 E.00428
G1 X71.198 Y39.049 E.02802
G1 X73.473 Y39.959 E.07683
G1 X77.776 Y39.959 E.13492
G1 X80.051 Y39.049 E.07683
G1 X80.95 Y39.049 E.02821
G1 X80.33 Y39.325 E.02128
G1 X79.753 Y39.545 E.01938
G1 X78.853 Y39.825 E.02955
G1 X78.251 Y39.972 E.01941
G1 X77.639 Y40.088 E.01953
G1 X77.023 Y40.174 E.01953
G1 X76.402 Y40.229 E.01953
G1 X75.78 Y40.252 E.01953
G1 X75.157 Y40.244 E.01953
G1 X74.536 Y40.205 E.01953
G1 X73.917 Y40.135 E.01953
G1 X73.302 Y40.034 E.01953
G1 X72.697 Y39.903 E.01941
G1 X71.791 Y39.646 E.02952
G1 X71.208 Y39.44 E.01941
G1 X70.482 Y39.132 E.02472
M204 S1000
G1 X70.267 Y39.448 F10800
M204 S800
;TYPE:External perimeter
G1 F1200
G1 X69.899 Y39.275 E.01275
G1 X69.333 Y38.973 E.02012
G1 X68.782 Y38.643 E.02012
G1 X68.249 Y38.285 E.02012
G1 X67.735 Y37.902 E.02012
G1 X67.24 Y37.493 E.02012
G1 X66.767 Y37.059 E.02012
G1 X66.316 Y36.603 E.02012
G1 X65.889 Y36.124 E.02012
G1 X65.486 Y35.624 E.02012
G1 X65.109 Y35.105 E.02012
G1 X64.758 Y34.568 E.02012
G1 X64.435 Y34.013 E.02012
G1 X64.14 Y33.443 E.02012
G1 X63.874 Y32.859 E.02012
G1 X63.638 Y32.262 E.02012
G1 X63.432 Y31.655 E.02012
G1 X63.257 Y31.037 E.02012
G1 X63.113 Y30.412 E.02012
G1 X63 Y29.781 E.02009
G1 X62.92 Y29.143 E.02015
G1 X62.872 Y28.506 E.02005
G1 X62.859 Y27.539 E.03033
G1 X62.892 Y26.9 E.02005
G1 X62.956 Y26.261 E.02012
G1 X63.052 Y25.627 E.02012
G1 X63.181 Y24.998 E.02012
G1 X63.34 Y24.377 E.02012
G1 X63.531 Y23.764 E.02012
G1 X63.752 Y23.161 E.02012
G1 X64.003 Y22.571 E.02012
G1 X64.284 Y21.993 E.02012
G1 X64.593 Y21.431 E.02012
G1 X64.93 Y20.885 E.02012
G1 X65.294 Y20.356 E.02012
G1 X65.684 Y19.847 E.02012
G1 X66.099 Y19.358 E.02012
G1 X66.539 Y18.89 E.02012
G1 X67.001 Y18.445 E.02012
G1 X67.485 Y18.023 E.02012
G1 X67.99 Y17.627 E.02012
G1 X68.514 Y17.256 E.02012
G1 X69.054 Y16.913 E.02008
G1 X69.9 Y16.448 E.03026
G1 X70.48 Y16.175 E.02008
G1 X71.073 Y15.932 E.02012
G1 X71.678 Y15.718 E.02012
G1 X72.293 Y15.535 E.02012
G1 X72.917 Y15.383 E.02012
G1 X73.547 Y15.263 E.02012
G1 X74.183 Y15.175 E.02012
G1 X74.822 Y15.118 E.02012
G1 X75.464 Y15.094 E.02012
G1 X76.103 Y15.102 E.02005
G1 X77.066 Y15.175 E.03029
G1 X77.701 Y15.263 E.02008
G1 X78.331 Y15.383 E.02012
G1 X78.955 Y15.535 E.02012
G1 X79.57 Y15.718 E.02012
G1 X80.175 Y15.932 E.02012
G1 X80.769 Y16.175 E.02012
G1 X81.349 Y16.449 E.02012
G1 X81.916 Y16.751 E.02012
G1 X82.466 Y17.081 E.02012
G1 X82.999 Y17.438 E.02012
G1 X83.513 Y17.822 E.02012
G1 X84.008 Y18.231 E.02012
G1 X84.481 Y18.664 E.02012
G1 X84.932 Y19.121 E.02012
G1 X85.36 Y19.6 E.02012
G1 X85.762 Y20.099 E.02012
G1 X86.14 Y20.618 E.02012
